svg/arrow_u_left_top.svg

<svg xmlns="http://www.w3.org/2000/svg" viewBox="0 0 24 24"><path d="M20 13.5a6.5 6.5 0 0 1-6.5 6.5H6v-2h7.5c2.5 0 4.5-2 4.5-4.5S16 9 13.5 9H7.83l3.08 3.09L9.5 13.5 4 8l5.5-5.5 1.42 1.41L7.83 7h5.67a6.5 6.5 0 0 1 6.5 6.5"/></svg>

<svg xmlns="http://www.w3.org/2000/svg" id="mdi-arrow-u-left-top" viewBox="0 0 24 24"><path d="M20 13.5C20 17.09 17.09 20 13.5 20H6V18H13.5C16 18 18 16 18 13.5S16 9 13.5 9H7.83L10.91 12.09L9.5 13.5L4 8L9.5 2.5L10.92 3.91L7.83 7H13.5C17.09 7 20 9.91 20 13.5Z" /></svg>
